(
~listener = {|msg, time, replyAddr, recvPort|
	if (msg[0] != "/status.reply", {
		// Log all received messages to the console.
		("Message received on port" + recvPort + "from " + replyAddr.ip + ":" + replyAddr.port + ":" + msg).postln;
	});
};

thisProcess.addOSCRecvFunc(~listener);
)


n = NetAddr("127.0.0.1", 57121);
n.sendBundle(0, ["/hello",3,3,3]);